icons/arrow-square-topright.svg

<svg width="24" height="24" viewBox="0 0 24 24" fill="none" xmlns="http://www.w3.org/2000/svg">
<path fill-rule="evenodd" clip-rule="evenodd" d="M9 3.75C6.11421 3.75 3.75 6.11421 3.75 9V15C3.75 17.8858 6.11421 20.25 9 20.25H15C17.7858 20.25 20.25 17.7858 20.25 15V9C20.25 6.11421 17.8858 3.75 15 3.75H9ZM2.25 9C2.25 5.28579 5.28579 2.25 9 2.25H15C18.7142 2.25 21.75 5.28579 21.75 9V15C21.75 18.6142 18.6142 21.75 15 21.75H9C5.28579 21.75 2.25 18.7142 2.25 15V9Z" fill="black"/>
<path fill-rule="evenodd" clip-rule="evenodd" d="M9.14959 14.8376C8.8567 14.5447 8.8567 14.0698 9.14959 13.7769L13.8165 9.11002C14.1094 8.81712 14.5843 8.81712 14.8772 9.11002C15.1701 9.40291 15.1701 9.87778 14.8772 10.1707L10.2103 14.8376C9.91736 15.1305 9.44249 15.1305 9.14959 14.8376Z" fill="black"/>
<path fill-rule="evenodd" clip-rule="evenodd" d="M9.63702 9.35742C9.63702 8.94321 9.9728 8.60742 10.387 8.60742L13.9225 8.60742C14.6196 8.60742 15.1675 9.15534 15.1675 9.8524L15.1675 13.3879C15.1675 13.8021 14.8317 14.1379 14.4175 14.1379C14.0033 14.1379 13.6675 13.8021 13.6675 13.3879L13.6675 10.1074L10.387 10.1074C9.9728 10.1074 9.63702 9.77164 9.63702 9.35742Z" fill="black"/>
</svg>

<svg xmlns="http://www.w3.org/2000/svg" fill="none" viewBox="0 0 24 24">
  <path fill="#000" fill-rule="evenodd" d="M9 3.75C6.114 3.75 3.75 6.114 3.75 9v6c0 2.886 2.364 5.25 5.25 5.25h6c2.786 0 5.25-2.464 5.25-5.25V9c0-2.886-2.364-5.25-5.25-5.25H9ZM2.25 9c0-3.714 3.036-6.75 6.75-6.75h6c3.714 0 6.75 3.036 6.75 6.75v6c0 3.614-3.136 6.75-6.75 6.75H9c-3.714 0-6.75-3.036-6.75-6.75V9Z" clip-rule="evenodd"/>
  <path fill="#000" fill-rule="evenodd" d="M9.15 14.838a.75.75 0 0 1 0-1.061l4.666-4.667a.75.75 0 0 1 1.061 1.06l-4.667 4.668a.75.75 0 0 1-1.06 0Z" clip-rule="evenodd"/>
  <path fill="#000" fill-rule="evenodd" d="M9.637 9.357a.75.75 0 0 1 .75-.75h3.535c.698 0 1.245.548 1.245 1.245v3.536a.75.75 0 0 1-1.5 0v-3.28h-3.28a.75.75 0 0 1-.75-.75Z" clip-rule="evenodd"/>
</svg>
